Newaita-dark/apps/24/riot.svg

<svg height="24" viewBox="0 0 24 24" width="24" xmlns="http://www.w3.org/2000/svg" xmlns:xlink="http://www.w3.org/1999/xlink"><linearGradient id="a"><stop offset="0" stop-opacity=".27451"/><stop offset="1" stop-opacity="0"/></linearGradient><linearGradient id="b" gradientUnits="userSpaceOnUse" x1="11.90739" x2="11.90739" xlink:href="#a" y1="21.02545225" y2="22.01773525002"/><linearGradient id="c"><stop offset="0" stop-opacity=".313726"/><stop offset=".222222" stop-opacity=".27451"/><stop offset="1" stop-opacity="0"/></linearGradient><radialGradient id="d" cx="450.908936" cy="189.579361" gradientTransform="matrix(.00000013 -.0585994 -.105479 -.00000008 27.68674 47.696499)" gradientUnits="userSpaceOnUse" r="21.166656" xlink:href="#c"/><radialGradient id="e" cx="450.908936" cy="189.579361" gradientTransform="matrix(-.00000013 .0585994 .105479 .00000008 -12.802506 -5.645609)" gradientUnits="userSpaceOnUse" r="21.166656" xlink:href="#c"/><radialGradient id="f" cx="450.908936" cy="189.579361" gradientTransform="matrix(-.00000013 -.0585994 .105479 -.00000008 -12.802506 47.696499)" gradientUnits="userSpaceOnUse" r="21.166656" xlink:href="#c"/><radialGradient id="g" cx="450.908936" cy="189.579361" gradientTransform="matrix(.00000013 .0585994 -.105479 .00000008 27.686739 -5.64561)" gradientUnits="userSpaceOnUse" r="21.166656" xlink:href="#c"/><linearGradient id="h" gradientUnits="userSpaceOnUse" x1="7.471936" x2="7.471936" y1="21.02539814717" y2="2.17207777507"><stop offset="0" stop-color="#90caf9"/><stop offset="1" stop-color="#bbdefb"/></linearGradient><linearGradient id="i"><stop offset="0" stop-color="#2979ff"/><stop offset="1" stop-color="#448aff"/></linearGradient><linearGradient id="j" gradientUnits="userSpaceOnUse" x1="11.90736" x2="11.90736" xlink:href="#i" y1="21.02539814717" y2="2.17207757661"/><linearGradient id="k" gradientUnits="userSpaceOnUse" x1="6.97581674998" x2="6.97581674998" xlink:href="#i" y1="6.141209" y2="2.17207774998"/><linearGradient id="l" gradientUnits="userSpaceOnUse" x1="21.830214" x2="21.830214" xlink:href="#a" y1="21.02545225" y2="22.01773525002"/><radialGradient id="m" cx="450.908936" cy="189.579361" gradientTransform="matrix(.00000013 -.0585994 -.105479 -.00000008 37.609563 47.696499)" gradientUnits="userSpaceOnUse" r="21.166656" xlink:href="#c"/><radialGradient id="n" cx="450.908936" cy="189.579361" gradientTransform="matrix(-.00000013 .0585994 .105479 .00000008 -2.879683 -5.645609)" gradientUnits="userSpaceOnUse" r="21.166656" xlink:href="#c"/><radialGradient id="o" cx="450.908936" cy="189.579361" gradientTransform="matrix(-.00000013 -.0585994 .105479 -.00000008 -2.879683 47.696499)" gradientUnits="userSpaceOnUse" r="21.166656" xlink:href="#c"/><radialGradient id="p" cx="450.908936" cy="189.579361" gradientTransform="matrix(.00000013 .0585994 -.105479 .00000008 37.609562 -5.64561)" gradientUnits="userSpaceOnUse" r="21.166656" xlink:href="#c"/><linearGradient id="q" gradientTransform="matrix(.0384014 -.026889 .026889 .0384014 -1.496265 13.873749)" gradientUnits="userSpaceOnUse" x1="222.69519" x2="368.383606" xlink:href="#i" y1="348.627991" y2="140.56337"/><path d="m6.945312 21.027344h.992188v.992187h-.992188zm0 0" fill="url(#b)"/><path d="m7.9375 21.027344h1.984375v-.996094h-1.984375zm0 0" fill="url(#d)"/><path d="m6.945312 21.027344h-1.984374v.992187h1.984374zm0 0" fill="url(#e)"/><path d="m6.945312 21.027344h-1.984374v-.996094h1.984374zm0 0" fill="url(#f)"/><path d="m7.9375 21.027344h1.984375v.992187h-1.984375zm0 0" fill="url(#g)"/><path d="m7.472656 2.171875c-1.375 0-2.480468 1.105469-2.480468 2.480469v13.890625c0 1.375 1.105468 2.484375 2.480468 2.484375s2.480469-1.109375 2.480469-2.484375v-4.464844h2.976563c3.296874 0 5.953124-2.652344 5.953124-5.953125 0-3.296875-2.65625-5.953125-5.953124-5.953125zm0 0" fill="url(#h)"/><path d="m7.472656 2.171875c-1.375 0-2.480468 1.105469-2.480468 2.480469v.496094c0-1.375 1.105468-2.480469 2.480468-2.480469h5.457032c3.214843 0 5.820312 2.523437 5.949218 5.707031.003906-.082031.003906-.167969.003906-.25 0-3.296875-2.65625-5.953125-5.953124-5.953125zm0 0" fill="#fff" fill-opacity=".392157"/><path d="m7.441406 3.472656c-.101562 0-.1875.085938-.1875.1875v15.875c0 .070313.035156.132813.09375.167969s.128906.035156.1875 0 .09375-.097656.09375-.167969v-6.757812h5.269532c2.574218 0 4.652343-2.078125 4.652343-4.652344s-2.078125-4.652344-4.652343-4.652344zm.1875.375h5.269532c2.375 0 4.277343 1.90625 4.277343 4.277344 0 2.375-1.902343 4.277344-4.277343 4.277344h-5.269532zm0 0" fill="url(#j)"/><path d="m7.472656 2.171875c1.371094 0 2.480469 1.109375 2.480469 2.480469s-1.109375 2.480468-2.480469 2.480468-2.480468-1.109374-2.480468-2.480468 1.109374-2.480469 2.480468-2.480469zm0 0" fill="url(#k)"/><path d="m18.878906 7.878906c-.128906 3.179688-2.734375 5.703125-5.949218 5.703125h-2.976563v.496094h2.976563c3.296874 0 5.953124-2.652344 5.953124-5.953125 0-.082031 0-.164062-.003906-.246094zm-13.886718 10.167969v.496094c0 1.375 1.105468 2.484375 2.480468 2.484375s2.480469-1.109375 2.480469-2.484375v-.496094c0 1.375-1.105469 2.480469-2.480469 2.480469s-2.480468-1.105469-2.480468-2.480469zm0 0" fill-opacity=".235294"/><path d="m16.867188 21.027344h.992187v.992187h-.992187zm0 0" fill="url(#l)"/><path d="m17.859375 21.027344h1.984375v-.996094h-1.984375zm0 0" fill="url(#m)"/><path d="m16.867188 21.027344h-1.984376v.992187h1.984376zm0 0" fill="url(#n)"/><path d="m16.867188 21.027344h-1.984376v-.996094h1.984376zm0 0" fill="url(#o)"/><path d="m17.859375 21.027344h1.984375v.992187h-1.984375zm0 0" fill="url(#p)"/><path d="m159.401445-168.671091c-29.330533 0-52.911614 23.581082-52.911614 52.911614v296.305038c0 29.330532 23.581081 52.994939 52.911614 52.994939 29.330532 0 52.911613-23.664407 52.911613-52.994939v-95.240905h63.493937c70.326618 0 126.987873-56.577931 126.987873-126.987874 0-70.326617-56.661255-126.987873-126.987873-126.987873zm0 0" style="fill:none;stroke-width:3;stroke-linecap:round;stroke-linejoin:round;stroke:#212121;stroke-opacity:.959559" transform="matrix(.0468795 0 0 .0468795 0 10.079087)"/><path d="m10.867188 9.214844c1.121093-.785156 2.667968-.511719 3.457031.609375l5.121093 7.316406c.785157 1.121094.511719 2.667969-.609374 3.453125-1.121094.785156-2.667969.515625-3.457032-.609375l-5.121094-7.3125c-.785156-1.125-.511718-2.671875.609376-3.457031zm0 0" fill="url(#q)"/><path d="m7.472656 2.171875c-1.375 0-2.480468 1.105469-2.480468 2.480469v.113281c.0625-1.320313 1.144531-2.363281 2.480468-2.363281 1.335938 0 2.417969 1.042968 2.476563 2.363281.003906-.035156.003906-.074219.003906-.113281 0-1.375-1.105469-2.480469-2.480469-2.480469zm4.835938 6.59375c-.5-.003906-1 .140625-1.441406.449219-.722657.507812-1.09375 1.328125-1.058594 2.148437.035156-.742187.402344-1.457031 1.058594-1.917969.441406-.308593.941406-.453124 1.441406-.453124.773437.007812 1.535156.375 2.015625 1.0625l5.121093 7.316406c.28125.398437.425782.855468.449219 1.308594.023438-.53125-.121093-1.070313-.449219-1.539063l-5.121093-7.316406c-.480469-.6875-1.242188-1.054688-2.015625-1.058594zm0 0" fill="#fff" fill-opacity=".392157"/><path d="m4.992188 4.550781v.101563c0 1.375 1.105468 2.480468 2.480468 2.480468s2.480469-1.105468 2.480469-2.480468c0-.03125 0-.066406-.003906-.101563-.046875 1.332031-1.136719 2.386719-2.476563 2.386719-1.34375 0-2.429687-1.054688-2.480468-2.386719zm4.816406 6.597657c-.019532.523437.125 1.058593.449218 1.523437l5.121094 7.3125c.789063 1.128906 2.332032 1.398437 3.457032.609375.71875-.503906 1.089843-1.316406 1.058593-2.128906-.03125.746094-.398437 1.46875-1.058593 1.933594-1.125.789062-2.667969.515624-3.457032-.609376l-5.121094-7.316406c-.285156-.40625-.429687-.867187-.449218-1.324218zm0 0" fill-opacity=".235294"/><g fill="#212121"><path d="m7.472656 2.101562c-1.414062 0-2.550781 1.140626-2.550781 2.550782 0 1.414062 1.136719 2.550781 2.550781 2.550781 1.410156 0 2.550782-1.136719 2.550782-2.550781 0-1.410156-1.140626-2.550782-2.550782-2.550782zm0 .140626c1.335938 0 2.410156 1.074218 2.410156 2.410156 0 1.335937-1.074218 2.410156-2.410156 2.410156-1.335937 0-2.410156-1.074219-2.410156-2.410156 0-1.335938 1.074219-2.410156 2.410156-2.410156zm0 0"/><path d="m10.828125 9.15625c-1.15625.8125-1.4375 2.398438-.628906 3.554688l5.125 7.316406c.808593 1.15625 2.394531 1.433594 3.550781.625s1.4375-2.394532.628906-3.550782l-5.125-7.316406c-.808594-1.15625-2.394531-1.4375-3.550781-.628906zm.078125.117188c1.097656-.765626 2.59375-.503907 3.359375.589843l5.121094 7.316407c.765625 1.09375.503906 2.589843-.589844 3.359374-1.097656.765626-2.59375.5-3.359375-.59375l-5.121094-7.316406c-.765625-1.09375-.503906-2.589844.589844-3.355468zm0 0"/></g></svg>

<?xml version="1.0" encoding="UTF-8"?>
<svg xmlns="http://www.w3.org/2000/svg" xmlns:xlink="http://www.w3.org/1999/xlink" width="24px" height="24px" viewBox="0 0 24 24" version="1.1">
<defs>
<linearGradient id="linear0" gradientUnits="userSpaceOnUse" x1="254" y1="233.5" x2="254" y2="254.666672" gradientTransform="matrix(0.0468795,0,0,0.0468795,-0.0000028613,10.079089)">
<stop offset="0" style="stop-color:rgb(0%,0%,0%);stop-opacity:0.27451;"/>
<stop offset="1" style="stop-color:rgb(0%,0%,0%);stop-opacity:0;"/>
</linearGradient>
<radialGradient id="radial0" gradientUnits="userSpaceOnUse" cx="450.908936" cy="189.579361" fx="450.908936" fy="189.579361" r="21.166656" gradientTransform="matrix(0.000000130628,-0.0585994,-0.105479,-0.0000000761539,27.68674,47.696499)">
<stop offset="0" style="stop-color:rgb(0%,0%,0%);stop-opacity:0.313726;"/>
<stop offset="0.222222" style="stop-color:rgb(0%,0%,0%);stop-opacity:0.27451;"/>
<stop offset="1" style="stop-color:rgb(0%,0%,0%);stop-opacity:0;"/>
</radialGradient>
<radialGradient id="radial1" gradientUnits="userSpaceOnUse" cx="450.908936" cy="189.579361" fx="450.908936" fy="189.579361" r="21.166656" gradientTransform="matrix(-0.000000130628,0.0585994,0.105479,0.0000000761539,-12.802506,-5.645609)">
<stop offset="0" style="stop-color:rgb(0%,0%,0%);stop-opacity:0.313726;"/>
<stop offset="0.222222" style="stop-color:rgb(0%,0%,0%);stop-opacity:0.27451;"/>
<stop offset="1" style="stop-color:rgb(0%,0%,0%);stop-opacity:0;"/>
</radialGradient>
<radialGradient id="radial2" gradientUnits="userSpaceOnUse" cx="450.908936" cy="189.579361" fx="450.908936" fy="189.579361" r="21.166656" gradientTransform="matrix(-0.000000130628,-0.0585994,0.105479,-0.0000000761539,-12.802506,47.696499)">
<stop offset="0" style="stop-color:rgb(0%,0%,0%);stop-opacity:0.313726;"/>
<stop offset="0.222222" style="stop-color:rgb(0%,0%,0%);stop-opacity:0.27451;"/>
<stop offset="1" style="stop-color:rgb(0%,0%,0%);stop-opacity:0;"/>
</radialGradient>
<radialGradient id="radial3" gradientUnits="userSpaceOnUse" cx="450.908936" cy="189.579361" fx="450.908936" fy="189.579361" r="21.166656" gradientTransform="matrix(0.000000130628,0.0585994,-0.105479,0.0000000761539,27.686739,-5.64561)">
<stop offset="0" style="stop-color:rgb(0%,0%,0%);stop-opacity:0.313726;"/>
<stop offset="0.222222" style="stop-color:rgb(0%,0%,0%);stop-opacity:0.27451;"/>
<stop offset="1" style="stop-color:rgb(0%,0%,0%);stop-opacity:0;"/>
</radialGradient>
<linearGradient id="linear1" gradientUnits="userSpaceOnUse" x1="680" y1="1695.118164" x2="680" y2="175.118134" gradientTransform="matrix(0.0124035,0,0,0.0124035,-0.962444,0.00000000000000141)">
<stop offset="0" style="stop-color:rgb(56.470591%,79.215688%,97.647059%);stop-opacity:1;"/>
<stop offset="1" style="stop-color:rgb(73.333335%,87.058824%,98.431373%);stop-opacity:1;"/>
</linearGradient>
<linearGradient id="linear2" gradientUnits="userSpaceOnUse" x1="960" y1="1695.118164" x2="960" y2="175.118118" gradientTransform="matrix(0.0124035,0,0,0.0124035,0,0.00000000000000141)">
<stop offset="0" style="stop-color:rgb(16.078432%,47.450981%,100%);stop-opacity:1;"/>
<stop offset="1" style="stop-color:rgb(26.666668%,54.11765%,100%);stop-opacity:1;"/>
</linearGradient>
<linearGradient id="linear3" gradientUnits="userSpaceOnUse" x1="169.333328" y1="-84" x2="169.333328" y2="-168.666672" gradientTransform="matrix(0.0468795,0,0,0.0468795,-0.962445,10.079087)">
<stop offset="0" style="stop-color:rgb(16.078432%,47.450981%,100%);stop-opacity:1;"/>
<stop offset="1" style="stop-color:rgb(26.666668%,54.11765%,100%);stop-opacity:1;"/>
</linearGradient>
<linearGradient id="linear4" gradientUnits="userSpaceOnUse" x1="254" y1="233.5" x2="254" y2="254.666672" gradientTransform="matrix(0.0468795,0,0,0.0468795,9.922821,10.079089)">
<stop offset="0" style="stop-color:rgb(0%,0%,0%);stop-opacity:0.27451;"/>
<stop offset="1" style="stop-color:rgb(0%,0%,0%);stop-opacity:0;"/>
</linearGradient>
<radialGradient id="radial4" gradientUnits="userSpaceOnUse" cx="450.908936" cy="189.579361" fx="450.908936" fy="189.579361" r="21.166656" gradientTransform="matrix(0.000000130628,-0.0585994,-0.105479,-0.0000000761539,37.609563,47.696499)">
<stop offset="0" style="stop-color:rgb(0%,0%,0%);stop-opacity:0.313726;"/>
<stop offset="0.222222" style="stop-color:rgb(0%,0%,0%);stop-opacity:0.27451;"/>
<stop offset="1" style="stop-color:rgb(0%,0%,0%);stop-opacity:0;"/>
</radialGradient>
<radialGradient id="radial5" gradientUnits="userSpaceOnUse" cx="450.908936" cy="189.579361" fx="450.908936" fy="189.579361" r="21.166656" gradientTransform="matrix(-0.000000130628,0.0585994,0.105479,0.0000000761539,-2.879683,-5.645609)">
<stop offset="0" style="stop-color:rgb(0%,0%,0%);stop-opacity:0.313726;"/>
<stop offset="0.222222" style="stop-color:rgb(0%,0%,0%);stop-opacity:0.27451;"/>
<stop offset="1" style="stop-color:rgb(0%,0%,0%);stop-opacity:0;"/>
</radialGradient>
<radialGradient id="radial6" gradientUnits="userSpaceOnUse" cx="450.908936" cy="189.579361" fx="450.908936" fy="189.579361" r="21.166656" gradientTransform="matrix(-0.000000130628,-0.0585994,0.105479,-0.0000000761539,-2.879683,47.696499)">
<stop offset="0" style="stop-color:rgb(0%,0%,0%);stop-opacity:0.313726;"/>
<stop offset="0.222222" style="stop-color:rgb(0%,0%,0%);stop-opacity:0.27451;"/>
<stop offset="1" style="stop-color:rgb(0%,0%,0%);stop-opacity:0;"/>
</radialGradient>
<radialGradient id="radial7" gradientUnits="userSpaceOnUse" cx="450.908936" cy="189.579361" fx="450.908936" fy="189.579361" r="21.166656" gradientTransform="matrix(0.000000130628,0.0585994,-0.105479,0.0000000761539,37.609562,-5.64561)">
<stop offset="0" style="stop-color:rgb(0%,0%,0%);stop-opacity:0.313726;"/>
<stop offset="0.222222" style="stop-color:rgb(0%,0%,0%);stop-opacity:0.27451;"/>
<stop offset="1" style="stop-color:rgb(0%,0%,0%);stop-opacity:0;"/>
</radialGradient>
<linearGradient id="linear5" gradientUnits="userSpaceOnUse" x1="222.69519" y1="348.627991" x2="368.383606" y2="140.56337" gradientTransform="matrix(0.0384014,-0.026889,0.026889,0.0384014,-1.496265,13.873749)">
<stop offset="0" style="stop-color:rgb(16.078432%,47.450981%,100%);stop-opacity:1;"/>
<stop offset="1" style="stop-color:rgb(26.666668%,54.11765%,100%);stop-opacity:1;"/>
</linearGradient>
</defs>
<g id="surface1">
<path style=" stroke:none;fill-rule:nonzero;fill:url(#linear0);" d="M 6.945312 21.027344 L 7.9375 21.027344 L 7.9375 22.019531 L 6.945312 22.019531 Z M 6.945312 21.027344 "/>
<path style=" stroke:none;fill-rule:nonzero;fill:url(#radial0);" d="M 7.9375 21.027344 L 9.921875 21.027344 L 9.921875 20.03125 L 7.9375 20.03125 Z M 7.9375 21.027344 "/>
<path style=" stroke:none;fill-rule:nonzero;fill:url(#radial1);" d="M 6.945312 21.027344 L 4.960938 21.027344 L 4.960938 22.019531 L 6.945312 22.019531 Z M 6.945312 21.027344 "/>
<path style=" stroke:none;fill-rule:nonzero;fill:url(#radial2);" d="M 6.945312 21.027344 L 4.960938 21.027344 L 4.960938 20.03125 L 6.945312 20.03125 Z M 6.945312 21.027344 "/>
<path style=" stroke:none;fill-rule:nonzero;fill:url(#radial3);" d="M 7.9375 21.027344 L 9.921875 21.027344 L 9.921875 22.019531 L 7.9375 22.019531 Z M 7.9375 21.027344 "/>
<path style=" stroke:none;fill-rule:nonzero;fill:url(#linear1);" d="M 7.472656 2.171875 C 6.097656 2.171875 4.992188 3.277344 4.992188 4.652344 L 4.992188 18.542969 C 4.992188 19.917969 6.097656 21.027344 7.472656 21.027344 C 8.847656 21.027344 9.953125 19.917969 9.953125 18.542969 L 9.953125 14.078125 L 12.929688 14.078125 C 16.226562 14.078125 18.882812 11.425781 18.882812 8.125 C 18.882812 4.828125 16.226562 2.171875 12.929688 2.171875 Z M 7.472656 2.171875 "/>
<path style=" stroke:none;fill-rule:nonzero;fill:rgb(100%,100%,100%);fill-opacity:0.392157;" d="M 7.472656 2.171875 C 6.097656 2.171875 4.992188 3.277344 4.992188 4.652344 L 4.992188 5.148438 C 4.992188 3.773438 6.097656 2.667969 7.472656 2.667969 L 12.929688 2.667969 C 16.144531 2.667969 18.75 5.191406 18.878906 8.375 C 18.882812 8.292969 18.882812 8.207031 18.882812 8.125 C 18.882812 4.828125 16.226562 2.171875 12.929688 2.171875 Z M 7.472656 2.171875 "/>
<path style=" stroke:none;fill-rule:nonzero;fill:url(#linear2);" d="M 7.441406 3.472656 C 7.339844 3.472656 7.253906 3.558594 7.253906 3.660156 L 7.253906 19.535156 C 7.253906 19.605469 7.289062 19.667969 7.347656 19.703125 C 7.40625 19.738281 7.476562 19.738281 7.535156 19.703125 C 7.59375 19.667969 7.628906 19.605469 7.628906 19.535156 L 7.628906 12.777344 L 12.898438 12.777344 C 15.472656 12.777344 17.550781 10.699219 17.550781 8.125 C 17.550781 5.550781 15.472656 3.472656 12.898438 3.472656 Z M 7.628906 3.847656 L 12.898438 3.847656 C 15.273438 3.847656 17.175781 5.753906 17.175781 8.125 C 17.175781 10.5 15.273438 12.402344 12.898438 12.402344 L 7.628906 12.402344 Z M 7.628906 3.847656 "/>
<path style=" stroke:none;fill-rule:nonzero;fill:url(#linear3);" d="M 7.472656 2.171875 C 8.84375 2.171875 9.953125 3.28125 9.953125 4.652344 C 9.953125 6.023438 8.84375 7.132812 7.472656 7.132812 C 6.101562 7.132812 4.992188 6.023438 4.992188 4.652344 C 4.992188 3.28125 6.101562 2.171875 7.472656 2.171875 Z M 7.472656 2.171875 "/>
<path style=" stroke:none;fill-rule:nonzero;fill:rgb(0%,0%,0%);fill-opacity:0.235294;" d="M 18.878906 7.878906 C 18.75 11.058594 16.144531 13.582031 12.929688 13.582031 L 9.953125 13.582031 L 9.953125 14.078125 L 12.929688 14.078125 C 16.226562 14.078125 18.882812 11.425781 18.882812 8.125 C 18.882812 8.042969 18.882812 7.960938 18.878906 7.878906 Z M 4.992188 18.046875 L 4.992188 18.542969 C 4.992188 19.917969 6.097656 21.027344 7.472656 21.027344 C 8.847656 21.027344 9.953125 19.917969 9.953125 18.542969 L 9.953125 18.046875 C 9.953125 19.421875 8.847656 20.527344 7.472656 20.527344 C 6.097656 20.527344 4.992188 19.421875 4.992188 18.046875 Z M 4.992188 18.046875 "/>
<path style=" stroke:none;fill-rule:nonzero;fill:url(#linear4);" d="M 16.867188 21.027344 L 17.859375 21.027344 L 17.859375 22.019531 L 16.867188 22.019531 Z M 16.867188 21.027344 "/>
<path style=" stroke:none;fill-rule:nonzero;fill:url(#radial4);" d="M 17.859375 21.027344 L 19.84375 21.027344 L 19.84375 20.03125 L 17.859375 20.03125 Z M 17.859375 21.027344 "/>
<path style=" stroke:none;fill-rule:nonzero;fill:url(#radial5);" d="M 16.867188 21.027344 L 14.882812 21.027344 L 14.882812 22.019531 L 16.867188 22.019531 Z M 16.867188 21.027344 "/>
<path style=" stroke:none;fill-rule:nonzero;fill:url(#radial6);" d="M 16.867188 21.027344 L 14.882812 21.027344 L 14.882812 20.03125 L 16.867188 20.03125 Z M 16.867188 21.027344 "/>
<path style=" stroke:none;fill-rule:nonzero;fill:url(#radial7);" d="M 17.859375 21.027344 L 19.84375 21.027344 L 19.84375 22.019531 L 17.859375 22.019531 Z M 17.859375 21.027344 "/>
<path style="fill:none;stroke-width:3;stroke-linecap:round;stroke-linejoin:round;stroke:rgb(12.941177%,12.941177%,12.941177%);stroke-opacity:0.959559;stroke-miterlimit:4;" d="M 159.401445 -168.671091 C 130.070912 -168.671091 106.489831 -145.090009 106.489831 -115.759477 L 106.489831 180.545561 C 106.489831 209.876093 130.070912 233.5405 159.401445 233.5405 C 188.731977 233.5405 212.313058 209.876093 212.313058 180.545561 L 212.313058 85.304656 L 275.806995 85.304656 C 346.133613 85.304656 402.794868 28.726725 402.794868 -41.683218 C 402.794868 -112.009835 346.133613 -168.671091 275.806995 -168.671091 Z M 159.401445 -168.671091 " transform="matrix(0.0468795,0,0,0.0468795,0,10.079087)"/>
<path style=" stroke:none;fill-rule:nonzero;fill:url(#linear5);" d="M 10.867188 9.214844 C 11.988281 8.429688 13.535156 8.703125 14.324219 9.824219 L 19.445312 17.140625 C 20.230469 18.261719 19.957031 19.808594 18.835938 20.59375 C 17.714844 21.378906 16.167969 21.109375 15.378906 19.984375 L 10.257812 12.671875 C 9.472656 11.546875 9.746094 10 10.867188 9.214844 Z M 10.867188 9.214844 "/>
<path style=" stroke:none;fill-rule:nonzero;fill:rgb(100%,100%,100%);fill-opacity:0.392157;" d="M 7.472656 2.171875 C 6.097656 2.171875 4.992188 3.277344 4.992188 4.652344 C 4.992188 4.691406 4.992188 4.730469 4.992188 4.765625 C 5.054688 3.445312 6.136719 2.402344 7.472656 2.402344 C 8.808594 2.402344 9.890625 3.445312 9.949219 4.765625 C 9.953125 4.730469 9.953125 4.691406 9.953125 4.652344 C 9.953125 3.277344 8.847656 2.171875 7.472656 2.171875 Z M 12.308594 8.765625 C 11.808594 8.761719 11.308594 8.90625 10.867188 9.214844 C 10.144531 9.722656 9.773438 10.542969 9.808594 11.363281 C 9.84375 10.621094 10.210938 9.90625 10.867188 9.445312 C 11.308594 9.136719 11.808594 8.992188 12.308594 8.992188 C 13.082031 9 13.84375 9.367188 14.324219 10.054688 L 19.445312 17.371094 C 19.726562 17.769531 19.871094 18.226562 19.894531 18.679688 C 19.917969 18.148438 19.773438 17.609375 19.445312 17.140625 L 14.324219 9.824219 C 13.84375 9.136719 13.082031 8.769531 12.308594 8.765625 Z M 12.308594 8.765625 "/>
<path style=" stroke:none;fill-rule:nonzero;fill:rgb(0%,0%,0%);fill-opacity:0.235294;" d="M 4.992188 4.550781 C 4.992188 4.585938 4.992188 4.621094 4.992188 4.652344 C 4.992188 6.027344 6.097656 7.132812 7.472656 7.132812 C 8.847656 7.132812 9.953125 6.027344 9.953125 4.652344 C 9.953125 4.621094 9.953125 4.585938 9.949219 4.550781 C 9.902344 5.882812 8.8125 6.9375 7.472656 6.9375 C 6.128906 6.9375 5.042969 5.882812 4.992188 4.550781 Z M 9.808594 11.148438 C 9.789062 11.671875 9.933594 12.207031 10.257812 12.671875 L 15.378906 19.984375 C 16.167969 21.113281 17.710938 21.382812 18.835938 20.59375 C 19.554688 20.089844 19.925781 19.277344 19.894531 18.464844 C 19.863281 19.210938 19.496094 19.933594 18.835938 20.398438 C 17.710938 21.1875 16.167969 20.914062 15.378906 19.789062 L 10.257812 12.472656 C 9.972656 12.066406 9.828125 11.605469 9.808594 11.148438 Z M 9.808594 11.148438 "/>
<path style=" stroke:none;fill-rule:nonzero;fill:rgb(12.941177%,12.941177%,12.941177%);fill-opacity:1;" d="M 7.472656 2.101562 C 6.058594 2.101562 4.921875 3.242188 4.921875 4.652344 C 4.921875 6.066406 6.058594 7.203125 7.472656 7.203125 C 8.882812 7.203125 10.023438 6.066406 10.023438 4.652344 C 10.023438 3.242188 8.882812 2.101562 7.472656 2.101562 Z M 7.472656 2.242188 C 8.808594 2.242188 9.882812 3.316406 9.882812 4.652344 C 9.882812 5.988281 8.808594 7.0625 7.472656 7.0625 C 6.136719 7.0625 5.0625 5.988281 5.0625 4.652344 C 5.0625 3.316406 6.136719 2.242188 7.472656 2.242188 Z M 7.472656 2.242188 "/>
<path style=" stroke:none;fill-rule:nonzero;fill:rgb(12.941177%,12.941177%,12.941177%);fill-opacity:1;" d="M 10.828125 9.15625 C 9.671875 9.96875 9.390625 11.554688 10.199219 12.710938 L 15.324219 20.027344 C 16.132812 21.183594 17.71875 21.460938 18.875 20.652344 C 20.03125 19.84375 20.3125 18.257812 19.503906 17.101562 L 14.378906 9.785156 C 13.570312 8.628906 11.984375 8.347656 10.828125 9.15625 Z M 10.90625 9.273438 C 12.003906 8.507812 13.5 8.769531 14.265625 9.863281 L 19.386719 17.179688 C 20.152344 18.273438 19.890625 19.769531 18.796875 20.539062 C 17.699219 21.304688 16.203125 21.039062 15.4375 19.945312 L 10.316406 12.628906 C 9.550781 11.535156 9.8125 10.039062 10.90625 9.273438 Z M 10.90625 9.273438 "/>
</g>
</svg>
